icons/mermaid-filled.svg

<svg width="256px" height="256px" viewBox="0 0 256 256" version="1.1" xmlns="http://www.w3.org/2000/svg" xmlns:xlink="http://www.w3.org/1999/xlink">
    <g id="Page-1" stroke="none" stroke-width="1" fill="none" fill-rule="evenodd">
        <g id="Mermaid-vector">
            <path d="M196,0 L60,0 C26.8629,0 5.68434189e-14,26.8629 5.68434189e-14,60 L5.68434189e-14,196 C5.68434189e-14,229.137 26.8629,256 60,256 L196,256 C229.137,256 256,229.137 256,196 L256,60 C256,26.8629 229.137,0 196,0 Z" id="Path" fill="#FF3670" fill-rule="nonzero"></path>
            <path d="M59.0860078,198.114328 C71.5148505,196.27585 83.1076723,191.874644 93.8644733,184.966423 C98.2675163,182.125138 106.906398,175.105494 109.860338,171.929941 C113.371625,168.197273 118.945098,161.010494 119.836853,159.060593 C120.3942,157.834941 121.397425,156.163597 122.010507,155.383636 C122.623589,154.603676 124.351365,151.372411 125.856203,148.252569 C128.197061,143.294249 128.642939,142.681423 128.977347,143.851364 C129.47896,145.578419 133.659064,153.879427 134.606554,154.937945 C134.996697,155.383636 135.944187,157.05498 136.724473,158.614901 C137.504759,160.230534 140.068557,163.740356 142.35368,166.414506 C144.638804,169.144368 146.533784,171.484249 146.533784,171.651383 C146.589519,172.319921 158.40528,181.958004 162.585384,184.743577 C168.270325,188.531957 170.22104,189.534763 177.745228,192.543182 C188.557763,196.888676 198.422809,198.95 208.622263,198.95 L214.14,198.95 L213.805592,191.874644 C213.415449,183.462213 211.966346,176.1083 208.956671,166.748775 C206.448609,159.004881 206.22567,158.503478 201.543953,150.759585 C195.078726,140.007273 188.111886,132.263379 177.410819,124.240929 C167.545774,116.831304 163.978752,112.652945 159.687178,103.404842 C156.175891,95.9395059 155.897217,93.8224704 155.618544,75.1591304 L155.33987,58 L128.42,58 L101.50013,58 L101.221456,75.1591304 C100.942783,94.6024308 100.664109,96.2180632 96.0381274,105.577589 C92.0252276,113.711462 88.2910013,117.834111 78.8718336,124.909466 C77.0325878,126.246542 74.5245254,128.140731 73.2983615,129.087826 C70.8460338,130.926304 63.7677243,138.503063 60.4793758,142.904269 C58.1942523,145.968399 52.6207802,155.105079 51.0044733,158.55919 C49.2209623,162.458992 45.7096749,173.768419 44.5392458,179.5067 C43.9261638,182.57083 43.2573472,188.197688 43.090143,191.986067 L42.7,198.95 L48.2177373,198.95 C51.2274122,198.95 56.1320676,198.56002 59.0860078,198.114328 Z" id="Path" fill="#FFFFFF" transform="translate(128.42, 128.475) rotate(180) translate(-128.42, -128.475)"></path>
        </g>
    </g>
</svg>

<svg xmlns="http://www.w3.org/2000/svg" width="256" height="256"><g id="Page-1" fill="none" fill-rule="evenodd" stroke="none" stroke-width="1"><g id="Mermaid-vector"><path id="Path" fill="#FF3670" fill-rule="nonzero" d="M196 0H60C26.863 0 0 26.863 0 60v136c0 33.137 26.863 60 60 60h136c33.137 0 60-26.863 60-60V60c0-33.137-26.863-60-60-60"/><path id="Path" fill="#FFF" d="M59.086 198.114c12.429-1.838 24.022-6.24 34.778-13.148 4.404-2.84 13.042-9.86 15.996-13.036 3.512-3.733 9.085-10.92 9.977-12.87.557-1.225 1.56-2.896 2.174-3.676s2.34-4.012 3.845-7.131c2.341-4.959 2.787-5.572 3.121-4.402.502 1.727 4.682 10.028 5.63 11.087.39.446 1.337 2.117 2.117 3.677.78 1.616 3.345 5.125 5.63 7.8 2.285 2.73 4.18 5.07 4.18 5.236.056.669 11.871 10.307 16.051 13.093 5.685 3.788 7.636 4.79 15.16 7.8 10.813 4.345 20.678 6.406 30.877 6.406h5.518l-.334-7.075c-.39-8.413-1.84-15.767-4.85-25.126-2.507-7.744-2.73-8.246-7.412-15.99-6.465-10.752-13.432-18.496-24.133-26.518-9.865-7.41-13.432-11.588-17.724-20.836-3.511-7.465-3.79-9.583-4.068-28.246L155.339 58H101.5l-.279 17.16c-.278 19.442-.557 21.058-5.183 30.418-4.013 8.133-7.747 12.256-17.166 19.331a289 289 0 0 0-5.574 4.179c-2.452 1.838-9.53 9.415-12.819 13.816-2.285 3.064-7.858 12.201-9.475 15.655-1.783 3.9-5.294 15.21-6.465 20.948-.613 3.064-1.282 8.69-1.449 12.48l-.39 6.963h5.518c3.01 0 7.914-.39 10.868-.836" transform="rotate(180 128.42 128.475)"/></g></g></svg>
